assets/symbols/mulberry/flag_mauritius.svg

<svg height="850.394" viewBox="0 0 850.394 850.394" width="850.394" xmlns="http://www.w3.org/2000/svg"><path d="m748.18 424v96.17h-579.62l-.88-96.17z" fill="#58b947"/><path d="m162.61 332v453.38h-39.49l-1.12-670.61c5.8 2.59 12.62 4.08 19.92 4.08 7.62 0 14.73-1.63 20.69-4.43z" fill="#c8c8c8"/><path d="m748.18 238v94h-581.35l-.86-94h580.03z" fill="#394ea1"/><path d="m748.18 332v92h-580.5l-.85-92z" fill="#fbed24"/><path d="m748.18 177.46v60.54h-582.21l-.9-97.66h583.11z" fill="#ed1e29"/><path d="m162.61 114.42c-5.96 2.8-13.07 4.43-20.69 4.43-7.3 0-14.12-1.49-19.92-4.08-10.99-4.89-18.33-13.72-18.33-23.8 0-15.4 17.13-27.88 38.25-27.88 21.13 0 38.26 12.48 38.26 27.88 0 9.84-7 18.49-17.57 23.45z" fill="#c8c8c8"/><g fill="none"><g stroke="#231f20"><path d="m165.07 140.34h583.11v379.83h-579.62m-46.56-405.4c-10.99-4.89-18.33-13.72-18.33-23.8 0-15.4 17.13-27.88 38.25-27.88 21.13 0 38.26 12.48 38.26 27.88 0 9.84-7 18.49-17.57 23.45-5.96 2.8-13.07 4.43-20.69 4.43-7.3 0-14.12-1.49-19.92-4.08z" stroke-width="21"/><path d="m122 114v.77l1.12 670.61m39.49-672.78v672.78" stroke-width="21"/><path d="m744.76 179.39 3.42-1.93 2.01-1.14m-586.19 155.68h586m-586-94h582m-580 186h584" stroke-width="14"/></g><path d="m0 0h850.394v850.394h-850.394z"/></g></svg>

<svg xmlns="http://www.w3.org/2000/svg" width="850.394" height="850.394" viewBox="0 0 850.394 850.394" overflow="visible"><path fill="#58b947" d="M748.18 424v96.17H168.56l-.88-96.17z"/><path d="M162.61 332v453.38h-39.49L122 114.77c5.8 2.59 12.62 4.08 19.92 4.08 7.62 0 14.73-1.63 20.69-4.43V332z" fill="#c8c8c8"/><path fill="#394ea1" d="M748.18 238v94H166.83l-.86-94H746z"/><path fill="#fbed24" d="M748.18 332v92h-580.5l-.85-92z"/><path fill="#ed1e29" d="M748.18 177.46V238H165.97l-.9-97.66h583.11z"/><path d="M162.61 114.42c-5.96 2.8-13.07 4.43-20.69 4.43-7.3 0-14.12-1.49-19.92-4.08-10.99-4.89-18.33-13.72-18.33-23.8 0-15.4 17.13-27.88 38.25-27.88 21.13 0 38.26 12.48 38.26 27.88 0 9.84-7 18.49-17.57 23.45z" fill="#c8c8c8"/><g fill="none" stroke="#231f20"><path stroke-width="21" d="M165.07 140.34h583.11v379.83H168.56M122 114.77c-10.99-4.89-18.33-13.72-18.33-23.8 0-15.4 17.13-27.88 38.25-27.88 21.13 0 38.26 12.48 38.26 27.88 0 9.84-7 18.49-17.57 23.45-5.96 2.8-13.07 4.43-20.69 4.43-7.3 0-14.12-1.49-19.92-4.08z"/><path stroke-width="21" d="M122 114v.77l1.12 670.61M162.61 112.6v672.78"/><path stroke-width="14" d="M744.76 179.39l3.42-1.93 2.01-1.14M164 332H750M164 238h582M166 424h584"/></g><path fill="none" d="M0 0h850.394v850.394H0z"/></svg>
